X:1
T:Title
%%score { ( 1 4 ) | ( 2 3 5 ) }
L:1/8
M:4/4
K:G
V:1 treble nm="Grand Piano"
V:4 treble 
V:2 bass 
V:3 bass 
V:5 bass 
V:1
 z4 z2 z[Q:1/4=100] [B,D] | [B,E]2 [B,F]2 [B,G]2 A2 | BB [Dd]>[Ec] c2 B>A | B2 B2 c2 B2 | %4
 [DF][DG] [^CB]>[CA] A2 D>D | [B,E]2 [B,F]2 [B,G]2 A2 | BF G>B [=Fd]2 [Ec]>[Ec] | %7
 [DB]2 [DA]2 [Dd]2 [DB]2 |[M:15/16] [^CG][CA]/-[CA]/B-B/A/A-<A[B,G]3/2 | %9
[M:3/4] [CB]2 [DB]2 [=FB]2 | [Ec]4 [EG]2 | B4 z2 | [G,B,G]6 | [G,D]2 [G,DE]2 [A,DF]2 | %14
 D2- [Dc]2 [DB]2 | A2 G2 A2 | B6 | [B,B]2 [DB]2 [CA]2 | [B,G]4 [DG]2 | A-[F,A] B2 [Ec]2 | %20
 d2 c2 B2 | e2 d2 [Ec]2 | B2 A2 [G,DG]2 | [EA]2 z2 z2 |[M:7/4] [B,DG]6 z2 z2 z4 |[M:4/4] [CEG]8 | %26
 [G,B,DG]8 |] %27
V:2
 z4 z2 z [G,,G,] | [G,,G,]2 [G,,G,]2 [G,,G,]2 [D,F,D]2 | z4 C4 | [G,D]2 [G,D]2 [F,A,D]2 [G,D]2 | %4
 [B,,G,][B,,G,] [E,G,]>[A,,G,] [D,F,C]2 [D,F,C]>[D,F,C] | [G,,G,]2 [G,,G,]2 [G,,G,]2 [D,F,D]2 | %6
 [G,D][G,B,D] [G,B,D]>[G,D] B,,2 C,>[C,G,] | [D,G,]2 [C,F,]2 [B,,G,]2 [E,G,]2 | %8
[M:15/16] [A,,E,][A,,E,]/-[A,,E,]/[D,F,D]-[D,F,D]/[D,F,C]/[D,F,C]-<[D,F,C][G,,G,]3/2 | %9
[M:3/4] [G,,G,]2 [G,,G,]2 [G,,G,]2 | [C,G,]4 [C,G,]2 | [D,D]4 [D,F,C]2 | G,,6 | B,,2 C,2 C,2 | %14
 B,,2 [A,,F,]2 [G,,G,]2 | [D,C]4 z2 | [G,B,]6 | [G,,G,]2 [B,,G,]2 [D,F,]2 | [E,G,]4 [B,,G,]2 | %19
 .[C,E,]2 [B,,^G,]2 [A,,A,]2 | D4 z2 | [B,,G,]4 [B,,G,]2 | [F,D]4 z2 | z2 E2 z2 | %24
[M:7/4] G,,6 z2 z2 z4 |[M:4/4] C,8 | G,,8 |] %27
V:3
 x8 | x8 | [G,D][G,D] [B,,G,]>[C,G,] [D,F,]2 G,>[D,F,D] | x8 | x8 | x8 | z4 G,4 | x8 | %8
[M:15/16] x15/2 |[M:3/4] x6 | x6 | G,2 z2 z2 | x6 | x6 | x6 | F,2 E,2 [D,F,C]2 | x6 | x6 | x6 | %19
 x6 | [D,F,]2 [F,A,]2 [G,D]2 | x6 | D,2 C,2 B,,2 | z2 z B, D,2 |[M:7/4] x14 |[M:4/4] x8 | x8 |] %27
V:4
 x8 | x8 | x8 | x8 | x8 | x8 | x8 | x8 |[M:15/16] x15/2 |[M:3/4] x6 | x6 | z2 E,2 A2 | x6 | x6 | %14
 [G,G]2 z2 z2 | x6 | x6 | x6 | x6 | E4 z2 | x6 | E4 z2 | x6 | C4 [A,DF]2 |[M:7/4] x14 |[M:4/4] x8 | %26
 x8 |] %27
V:5
 x8 | x8 | x8 | x8 | x8 | x8 | x8 | x8 |[M:15/16] x15/2 |[M:3/4] x6 | x6 | x6 | x6 | x6 | x6 | x6 | %16
 x6 | x6 | x6 | x6 | x6 | x6 | x6 | C,4 z2 |[M:7/4] x14 |[M:4/4] x8 | x8 |] %27

